X: 19195
T: Isla Mackenzie's 21st
R: jig
M: 6/8
K: Gmajor
B|Dge dBA|:cBA G2 E-|EBE GAB|AdB ABc
dge dBA|cBA G2 E-|EBE GAB|1 A4 Bc|dge dBA:|2 A6||
|:ABc ecg-|g3 efg|fed A3|AAB AGE|
ABc ecg-|g2e gab|1 a4 ag|f2 d2 cB:|2 a6-|ad'b agd||" + on last pass"zge dBA|cBA G||

